!!!COM: Bach, Johann Sebastian
!!!CDT: 1685/3//-1750/7/28/
!!!OTL@@DE: Wer nur den lieben Gott laesst walten
!!!AGN: 4-Part Chorale
!!!SCT: BH 146
!!!SCT: BWV 434
**harm	**root	**kern	**kern	**kern	**kern
!	!	!bass	!tenor	!alto	!soprno
*	*Iorgan	*Iorgan	*Iorgan	*Iorgan	*Iorgan
*	*	*clefF2	*clefF2	*clefG2	*clefG2
*k[f#c#]	*k[f#c#]	*k[f#c#]	*k[f#c#]	*k[f#c#]	*k[f#c#]
*b:	*b:	*b:	*b:	*b:	*b:
*M4/4	*M4/4	*M4/4	*M4/4	*M4/4	*M4/4
*met(c)	*met(c)	*met(c)	*met(c)	*met(c)	*met(c)
*MM60	*MM60	*MM60	*MM60	*MM60	*MM60
*>[A,A,B]	*>[A,A,B]	*>[A,A,B]	*>[A,A,B]	*>[A,A,B]	*>[A,A,B]
*>A	*>A	*>A	*>A	*>A	*>A
i	4AA	4B	8B	8d	4f#
.	.	.	8c#	8e	.
=1	=1	=1	=1	=1	=1
ib	4AA	4D	8d	4f#	4b
.	.	.	8c#	.	.
V	4EE	4F#	8B	4f#	4cc#
.	.	.	8A#	.	.
i	4AA	4BB	4B	8f#	4dd
.	.	.	.	8g#	.
viiob	4GG#	4C#	4E	4a#	4cc#
=2	=2	=2	=2	=2	=2
ib	4AA	4D	8F#	8b	4b
.	.	.	8f#	8a	.
iiob	4BB	4E	8e	4g	4cc#
.	.	.	8d	.	.
V	2EE	2F#	4.c#	2f#	4.a#
.	.	.	8B	.	8g#
=3	=3	=3	=3	=3	=3
V;	4EE;	4F#;	4A#;	4c#;	4f#;
v	4EE	4F#	4c#	4f#	4a
i7	4AA	4B	4d	4f#	4a
iio	4BB	8c#	8e	4e	4g
.	.	8B	8d	.	.
=4	=4	=4	=4	=4	=4
V7b	8EE	8A#	8c#	8e	4f#
V7c/IV	8AA	8A	8B	8d#	.
IVb	8DD	8G#	8B	8e	4b
Fr	8DD#	8G	8c#	8e#	.
ic	8AA	8F#	8d	8f#	8b
Vb/V	8BB	8E#	[8c#	8g#	8cc#
V7	4EE	4F#	8c#]	4f#	4a#
.	.	.	16d	.	.
.	.	.	16e	.	.
!!linebreak: 2
=5	=5	=5	=5	=5	=5
i;	2.AA;	2.BB;	2.d;	2.f#;	2.b;
=:|!	=:|!	=:|!	=:|!	=:|!	=:|!
*>B	*>B	*>B	*>B	*>B	*>B
V	4EE	4F#	4f#	4a#	4cc#
=6	=6	=6	=6	=6	=6
i	4AA	4B	4f#	4b	4dd
-VII	4GG	4c#	4e	4a	4ee
III	4CC	8d	4d	4a	4ff#
.	.	8c#	.	.	.
i	4AA	8B	4d	4b	4ff#
.	.	8A	.	.	.
=7	=7	=7	=7	=7	=7
iv7	4DD	8G	4d	4b	8ee
.	.	8E	.	.	16ff#
.	.	.	.	.	16gg
V7/III	4GG	4A	4c#	8a	4ee
.	.	.	.	8g	.
III;	4CC;	4D;	4A;	4f#;	4dd;
I	4AA	4D#	4B	4f#	4ff#
=8	=8	=8	=8	=8	=8
IV	8DD	8E	8B	8g#	4ee
V7	8EE	8F#	8f#	8a#	.
vi7	8FF	8G	8f#	4b	4dd
viio/-VII	8FF#	8G#	8f	.	.
-VII	8GG	8A	4e	8a	4cc#
viio7	8GG#	8A#	.	8g	.
i	4AA	4B	8d	4f#	8b
.	.	.	8c#	.	8cc#
=9	=9	=9	=9	=9	=9
viio7/V	4DD#	4E#	4B	4g#	8dd
.	.	.	.	.	8cc#
V7	4EE	4F#	4A#	8f#	4cc#
.	.	.	.	8e	.
I;	4AA;	4BB;	4F#;	4d#;	4b;
==	==	==	==	==	==
*-	*-	*-	*-	*-	*-
!!chor2scor: -l 2 -s 0.6 -o %b.pmx
!!!YEC: Copyright 2003 by Craig Stuart Sapp
!!!license: GNU General Public License (http://www.gnu.org/copyleft/gpl.html)
!!!SMA: 371 Bach Chorales, edited by Ludwig Erk, C.F. Peters
!!!PDT: 1850, 1865
!!!ONB: Harmony and Root analysis done manually by Craig Sapp
